src/components/assets/basics3.svg

<svg fill="none" height="545" viewBox="0 0 782 545" width="782" xmlns="http://www.w3.org/2000/svg" xmlns:xlink="http://www.w3.org/1999/xlink"><filter id="a" color-interpolation-filters="sRGB" filterUnits="userSpaceOnUse" height="545" width="782" x="0" y="0"><feFlood flood-opacity="0" result="BackgroundImageFix"/><feColorMatrix in="SourceAlpha" type="matrix" values="0 0 0 0 0 0 0 0 0 0 0 0 0 0 0 0 0 0 127 0"/><feOffset dy="3"/><feGaussianBlur stdDeviation="8.5"/><feColorMatrix type="matrix" values="0 0 0 0 0 0 0 0 0 0 0 0 0 0 0 0 0 0 0.1 0"/><feBlend in2="BackgroundImageFix" mode="normal" result="effect1_dropShadow"/><feBlend in="SourceGraphic" in2="effect1_dropShadow" mode="normal" result="shape"/></filter><mask id="b" height="511" maskUnits="userSpaceOnUse" width="748" x="17" y="14"><rect fill="#fff" height="511" rx="6" width="748" x="17" y="14"/></mask><g filter="url(#a)"><rect fill="#fff" height="511" rx="6" width="748" x="17" y="14"/></g><g mask="url(#b)" stroke="#ffa776" stroke-width="1.5"><circle cx="392.5" cy="270.5" opacity=".5" r="223.216"/><circle cx="392.5" cy="270.5" opacity=".3" r="255.045"/><circle cx="392.5" cy="270.5" opacity=".15" r="286.098"/><circle cx="392.5" cy="270.5" opacity=".1" r="317.75"/></g><g fill="#ffa776"><path d="m391.5 172-4.763-3.75h9.526z" opacity=".6"/><path d="m391.5 180-4.763-3.75h9.526z" opacity=".7"/><path d="m391.5 188-4.763-3.75h9.526z" opacity=".8"/><path d="m391.5 196-4.763-3.75h9.526z"/><path d="m391.5 204-4.763-3.75h9.526z"/><path d="m324.421 338.318 1.337 5.913-7.398-6.001z" opacity=".6"/><path d="m329.46 332.105 1.338 5.913-7.399-6.001z" opacity=".7"/><path d="m334.5 325.891 1.337 5.913-7.399-6z" opacity=".8"/><path d="m339.539 319.678 1.337 5.913-7.399-6.001z"/><path d="m344.578 313.464 1.337 5.913-7.399-6z"/><path d="m456.428 338.318-1.337 5.913 7.399-6.001z" opacity=".6"/><path d="m451.389 332.105-1.337 5.913 7.399-6.001z" opacity=".7"/><path d="m446.35 325.891-1.337 5.913 7.399-6z" opacity=".8"/><path d="m441.311 319.678-1.338 5.913 7.399-6.001z"/><path d="m436.272 313.464-1.338 5.913 7.399-6z"/><circle cx="287" cy="385" r="39"/><circle cx="495" cy="385" r="39"/></g><circle cx="390.773" cy="263.773" fill="#8987ff" r="49.7726"/><path d="m413.094 241v37.953l-9.434 2.051-2.051 9.434h-24.609v-49.438z" fill="#bfbeff"/><path d="m413.094 241v37.953l-9.434 2.051-2.051 9.434h-24.609v-49.438z" fill="#a6a5ff" opacity=".6"/><path d="m401.609 278.953v11.485l11.485-11.485z" fill="#eef"/><rect fill="#8987ff" fill-opacity=".6" height="3" rx="1.5" width="28" x="381" y="246"/><rect fill="#8987ff" fill-opacity=".4" height="3" rx="1.5" width="28" x="381" y="253"/><rect fill="#8987ff" height="3" opacity=".3" rx="1.5" width="28" x="381" y="260"/><rect fill="#8987ff" height="3" opacity=".2" rx="1.5" width="28" x="381" y="267"/><circle cx="391" cy="119" fill="#ffa776" r="39"/><path d="m398.108 123.748h10.4486v8.40782h-10.4486z" fill="#f9fafc" transform="matrix(.70064904 -.71350608 .71350608 .70064904 30.879061 321.096559)"/><path d="m394.536 120.455h10.4486v2.88173h-10.4486z" fill="#f9fafc" transform="matrix(.70064904 -.71350608 .71350608 .70064904 32.159355 317.562152)"/><path d="m405.623 131.038h10.4486v2.88173h-10.4486z" fill="#f9fafc" transform="matrix(.70064904 -.71350608 .71350608 .70064904 27.927224 328.640825)"/><path d="m397.542 127.868h3.58732v10.7917h-3.58732z" fill="#f9fafc" transform="matrix(.71519278 .69892725 -.69892725 .71519278 202.593263 -241.435205)"/><path d="m375 134.7c0-8.862 7.184-16.046 16.047-16.046" stroke="#f9fafc" stroke-width="5"/><circle cx="391.047" cy="103.551" fill="#f9fafc" r="7.5513"/><path d="m294.108 389.748h10.4486v8.40782h-10.4486z" fill="#f9fafc" transform="matrix(.70064904 -.71350608 .71350608 .70064904 -190.046054 326.519282)"/><path d="m290.536 386.455h10.4486v2.88173h-10.4486z" fill="#f9fafc" transform="matrix(.70064904 -.71350608 .71350608 .70064904 -188.76576 322.984875)"/><path d="m301.623 397.038h10.4486v2.88173h-10.4486z" fill="#f9fafc" transform="matrix(.70064904 -.71350608 .71350608 .70064904 -192.997891 334.063548)"/><path d="m293.542 393.868h3.58732v10.7917h-3.58732z" fill="#f9fafc" transform="matrix(.71519278 .69892725 -.69892725 .71519278 358.887959 -92.988049)"/><path d="m271 400.7c0-8.862 7.184-16.046 16.047-16.046" stroke="#f9fafc" stroke-width="5"/><circle cx="287.047" cy="369.551" fill="#f9fafc" r="7.5513"/><path d="m501.108 389.748h10.4486v8.40782h-10.4486z" fill="#f9fafc" transform="matrix(.70064904 -.71350608 .71350608 .70064904 -128.080406 474.215039)"/><path d="m497.536 386.455h10.4486v2.88173h-10.4486z" fill="#f9fafc" transform="matrix(.70064904 -.71350608 .71350608 .70064904 -126.800112 470.680633)"/><path d="m508.623 397.038h10.4486v2.88173h-10.4486z" fill="#f9fafc" transform="matrix(.70064904 -.71350608 .71350608 .70064904 -131.032243 481.759306)"/><path d="m500.542 393.868h3.58732v10.7917h-3.58732z" fill="#f9fafc" transform="matrix(.71519278 .69892725 -.69892725 .71519278 417.843054 -237.665989)"/><path d="m478 400.7c0-8.862 7.184-16.046 16.047-16.046" stroke="#f9fafc" stroke-width="5"/><circle cx="494.047" cy="369.551" fill="#f9fafc" r="7.5513"/><path d="m405.094 249v37.953l-9.434 2.051-2.051 9.434h-24.609v-49.438z" fill="#c8c7ff"/><path d="m393.609 286.953v11.485l11.485-11.485z" fill="#eef"/><rect fill="#8987ff" fill-opacity=".6" height="3" rx="1.5" width="28" x="373" y="254"/><rect fill="#8987ff" fill-opacity=".4" height="3" rx="1.5" width="28" x="373" y="261"/><rect fill="#8987ff" height="3" opacity=".3" rx="1.5" width="28" x="373" y="268"/><rect fill="#8987ff" height="3" opacity=".2" rx="1.5" width="28" x="373" y="275"/></svg>

<svg width="782" height="545" viewBox="0 0 782 545" fill="none" xmlns="http://www.w3.org/2000/svg">
<g filter="url(#filter0_d)">
<rect x="17" y="14" width="748" height="511" rx="6" fill="white"/>
</g>
<mask id="mask0" mask-type="alpha" maskUnits="userSpaceOnUse" x="17" y="14" width="748" height="511">
<rect x="17" y="14" width="748" height="511" rx="6" fill="white"/>
</mask>
<g mask="url(#mask0)">
<circle opacity="0.5" cx="392.5" cy="270.5" r="223.216" stroke="#FFA776" stroke-width="1.5"/>
<circle opacity="0.3" cx="392.5" cy="270.5" r="255.045" stroke="#FFA776" stroke-width="1.5"/>
<circle opacity="0.15" cx="392.5" cy="270.5" r="286.098" stroke="#FFA776" stroke-width="1.5"/>
<circle opacity="0.1" cx="392.5" cy="270.5" r="317.75" stroke="#FFA776" stroke-width="1.5"/>
</g>
<path opacity="0.6" d="M391.5 172L386.737 168.25L396.263 168.25L391.5 172Z" fill="#FFA776"/>
<path opacity="0.7" d="M391.5 180L386.737 176.25L396.263 176.25L391.5 180Z" fill="#FFA776"/>
<path opacity="0.8" d="M391.5 188L386.737 184.25L396.263 184.25L391.5 188Z" fill="#FFA776"/>
<path d="M391.5 196L386.737 192.25L396.263 192.25L391.5 196Z" fill="#FFA776"/>
<path d="M391.5 204L386.737 200.25L396.263 200.25L391.5 204Z" fill="#FFA776"/>
<path opacity="0.6" d="M324.421 338.318L325.758 344.231L318.36 338.23L324.421 338.318Z" fill="#FFA776"/>
<path opacity="0.7" d="M329.46 332.105L330.798 338.018L323.399 332.017L329.46 332.105Z" fill="#FFA776"/>
<path opacity="0.8" d="M334.5 325.891L335.837 331.804L328.438 325.804L334.5 325.891Z" fill="#FFA776"/>
<path d="M339.539 319.678L340.876 325.591L333.477 319.59L339.539 319.678Z" fill="#FFA776"/>
<path d="M344.578 313.464L345.915 319.377L338.516 313.377L344.578 313.464Z" fill="#FFA776"/>
<path opacity="0.6" d="M456.428 338.318L455.091 344.231L462.49 338.23L456.428 338.318Z" fill="#FFA776"/>
<path opacity="0.7" d="M451.389 332.105L450.052 338.018L457.451 332.017L451.389 332.105Z" fill="#FFA776"/>
<path opacity="0.8" d="M446.35 325.891L445.013 331.804L452.412 325.804L446.35 325.891Z" fill="#FFA776"/>
<path d="M441.311 319.678L439.973 325.591L447.372 319.59L441.311 319.678Z" fill="#FFA776"/>
<path d="M436.272 313.464L434.934 319.377L442.333 313.377L436.272 313.464Z" fill="#FFA776"/>
<circle cx="287" cy="385" r="39" fill="#FFA776"/>
<circle cx="495" cy="385" r="39" fill="#FFA776"/>
<circle cx="390.773" cy="263.773" r="49.7726" fill="#8987FF"/>
<path d="M413.094 241V278.953L403.66 281.004L401.609 290.438H377V241H413.094Z" fill="#BFBEFF"/>
<path opacity="0.6" d="M413.094 241V278.953L403.66 281.004L401.609 290.438H377V241H413.094Z" fill="#A6A5FF"/>
<path d="M401.609 278.953V290.438L413.094 278.953H401.609Z" fill="#EEEEFF"/>
<rect x="381" y="246" width="28" height="3" rx="1.5" fill="#8987FF" fill-opacity="0.6"/>
<rect x="381" y="253" width="28" height="3" rx="1.5" fill="#8987FF" fill-opacity="0.4"/>
<rect opacity="0.3" x="381" y="260" width="28" height="3" rx="1.5" fill="#8987FF"/>
<rect opacity="0.2" x="381" y="267" width="28" height="3" rx="1.5" fill="#8987FF"/>
<circle cx="391" cy="119" r="39" fill="#FFA776"/>
<rect x="398.108" y="123.748" width="10.4486" height="8.40782" transform="rotate(-45.5209 398.108 123.748)" fill="#F9FAFC"/>
<rect x="394.536" y="120.455" width="10.4486" height="2.88173" transform="rotate(-45.5209 394.536 120.455)" fill="#F9FAFC"/>
<rect x="405.623" y="131.038" width="10.4486" height="2.88173" transform="rotate(-45.5209 405.623 131.038)" fill="#F9FAFC"/>
<rect x="397.542" y="127.868" width="3.58732" height="10.7917" transform="rotate(44.341 397.542 127.868)" fill="#F9FAFC"/>
<path d="M375 134.7C375 125.838 382.184 118.654 391.047 118.654" stroke="#F9FAFC" stroke-width="5"/>
<circle cx="391.047" cy="103.551" r="7.5513" fill="#F9FAFC"/>
<rect x="294.108" y="389.748" width="10.4486" height="8.40782" transform="rotate(-45.5209 294.108 389.748)" fill="#F9FAFC"/>
<rect x="290.536" y="386.455" width="10.4486" height="2.88173" transform="rotate(-45.5209 290.536 386.455)" fill="#F9FAFC"/>
<rect x="301.623" y="397.038" width="10.4486" height="2.88173" transform="rotate(-45.5209 301.623 397.038)" fill="#F9FAFC"/>
<rect x="293.542" y="393.868" width="3.58732" height="10.7917" transform="rotate(44.341 293.542 393.868)" fill="#F9FAFC"/>
<path d="M271 400.7C271 391.838 278.184 384.654 287.047 384.654" stroke="#F9FAFC" stroke-width="5"/>
<circle cx="287.047" cy="369.551" r="7.5513" fill="#F9FAFC"/>
<rect x="501.108" y="389.748" width="10.4486" height="8.40782" transform="rotate(-45.5209 501.108 389.748)" fill="#F9FAFC"/>
<rect x="497.536" y="386.455" width="10.4486" height="2.88173" transform="rotate(-45.5209 497.536 386.455)" fill="#F9FAFC"/>
<rect x="508.623" y="397.038" width="10.4486" height="2.88173" transform="rotate(-45.5209 508.623 397.038)" fill="#F9FAFC"/>
<rect x="500.542" y="393.868" width="3.58732" height="10.7917" transform="rotate(44.341 500.542 393.868)" fill="#F9FAFC"/>
<path d="M478 400.7C478 391.838 485.184 384.654 494.047 384.654" stroke="#F9FAFC" stroke-width="5"/>
<circle cx="494.047" cy="369.551" r="7.5513" fill="#F9FAFC"/>
<path d="M405.094 249V286.953L395.66 289.004L393.609 298.438H369V249H405.094Z" fill="#C8C7FF"/>
<path d="M393.609 286.953V298.438L405.094 286.953H393.609Z" fill="#EEEEFF"/>
<rect x="373" y="254" width="28" height="3" rx="1.5" fill="#8987FF" fill-opacity="0.6"/>
<rect x="373" y="261" width="28" height="3" rx="1.5" fill="#8987FF" fill-opacity="0.4"/>
<rect opacity="0.3" x="373" y="268" width="28" height="3" rx="1.5" fill="#8987FF"/>
<rect opacity="0.2" x="373" y="275" width="28" height="3" rx="1.5" fill="#8987FF"/>
<defs>
<filter id="filter0_d" x="0" y="0" width="782" height="545" filterUnits="userSpaceOnUse" color-interpolation-filters="sRGB">
<feFlood flood-opacity="0" result="BackgroundImageFix"/>
<feColorMatrix in="SourceAlpha" type="matrix" values="0 0 0 0 0 0 0 0 0 0 0 0 0 0 0 0 0 0 127 0"/>
<feOffset dy="3"/>
<feGaussianBlur stdDeviation="8.5"/>
<feColorMatrix type="matrix" values="0 0 0 0 0 0 0 0 0 0 0 0 0 0 0 0 0 0 0.1 0"/>
<feBlend mode="normal" in2="BackgroundImageFix" result="effect1_dropShadow"/>
<feBlend mode="normal" in="SourceGraphic" in2="effect1_dropShadow" result="shape"/>
</filter>
</defs>
</svg>
